X: 61
M:2/4
L:1/16
K:D
v.D.F(AF) .B.F(Ad) | .D.F(FA) (BE).E.F | (DF)(AF) (BF).A.c | (fa).A.c =
(ed).d2 |=20
 .D.F(AF) .B.F(Ad) | .D.F(FA) (BE).E.F | (DF)(AF) (BF).A.c | (fa).A.c =
(ed).d2 ::
 .d2(fd) .c2(ec) | (Bd).A.F (GFE).D | .A,(DFA) (DFAd) | (fa)(df) .e2(fg) =
|=20
 (aba).f (gfe).d | (edf).d (edB).c | {e}(d^cd).A (Bd).A.F | (GB).A.F =


